X: 30062
T: Oh As I Was Kissed Yest'reen
R: jig
M: 6/8
K: Adorian
|:ABA ABd|e/f/gB A2c|BAB GAG|BAB GAB|
cBc dcd|ede a2g|edc Bcd|1 eAA A2e:|2 eAA A2^g||
a2A ABA|a^ga ~A2f|g2G GAG|BAB GAB|
cBc dcd|ede a2g|edc Bcd|eAA A2^g|
a^ga ABA|a^ga ABA|gfg GAG|BAB GAB|
cBc dcd|ede a2g|edc Bcd|eAA A2e||

